X:1
T:Title
%%score { ( 1 3 ) | ( 2 4 ) }
L:1/8
Q:1/4=132
M:6/4
K:G
V:1 treble nm="Grand Piano"
V:3 treble 
V:2 bass 
V:4 bass 
V:1
 [EG]2 [^DF]2 [EG]2 [CE]2 [EG]2 [Ec]2 | [=FB]4 [FA]2 [FB]6 | d2 ^c2 d2 G4 d2 | %3
w: Geo.~C.~Stebbins * * * * *|||
[M:5/4] [Ec]2- [Ec]2- [Ec]6 |[M:1/4] [EG]2 |[M:6/4] [EG]2 [^DF]2 [EG]2 [CE]2 [EG]2 e2 | d4 c2 d6 | %7
w: ||||
 [GB]2 [DG]2 [Ec]2 [CFA]4 [B,G]2 | [B,G]12 | G2 A2 G2 B2 A2 G2 | [Ec]4 [CE]2 .[EG]6 | %11
w: ||||
 c2 B2 c2 [Fd]4 [Fe]2 |[M:5/4] [Gd]2- [Gd]2- [Gd]6 |[M:1/4] [Gd]2 | %14
w: |||
[M:6/4] [Ge]2 [=Fd]2 [Ge]2 [EG]2 [^D^F]2 [EG]2 | A4 c2 c6 | G2 E2 c2 B4 [Ec]2 | %17
w: |||
[M:5/4] [Ec]2- [Ec]2- [Ec]6 |[M:1/4] G2 |[M:6/4] .d12 | [Ec]12 | %21
w: ||||
 [C=FA]2 [DGB]2 [CGc]2 [^Fd]4 [Fe]2 |[M:5/4] d2- d2- d6 |[M:1/4] G2 | %24
w: |||
[M:6/4] [Ge]2 [F^d]2 [Ge]2 [EG]2 [^DF]2 [EG]2 | [=FA]4 [Ac]2 [Ac]2 [GB]2 A2 | G2 c2 e2 d4 [Ec]2 | %27
w: |||
 [Ec]12 |] %28
w: |
V:2
 [C,C]2 [C,C]2 [C,C]2 [C,G,]2 [C,G,]2 [C,G,]2 | [D,G,]4 [D,G,]2 [D,G,]6 | %2
 [G,B,=F]2 [G,B,E]2 [G,B,F]2 [G,B,F]4 [G,B,F]2 |[M:5/4][K:bass] [C,C]2- [C,C]2- [C,C]6 | %4
[M:1/4] [C,C]2 |[M:6/4] [C,C]2 [C,C]2 [C,C]2 [C,G,]2 [C,C]2[K:treble] [CG]2 | %6
 [A,CF]4 [A,F]2 [A,CF]6 | [D,D]2 [D,B,]2 [D,G,]2 D,4 G,,2 | G,,12 | %9
 [G,B,=F]2 [G,CF]2 [G,B,F]2 [G,DF]2 [G,CF]2 [G,B,F]2 | [C,C]4 [C,G,]2 .[C,C]6 | %11
 [A,E]2 [^G,DE]2 [A,CE]2 [D,C]4 [D,C]2 |[M:5/4] [G,B,]2- [G,B,]2- [G,B,]6 |[M:1/4] [G,B,]2 | %14
[M:6/4] [C,C]2 [C,C]2 [C,C]2 [C,C]2 [C,C]2 [C,C]2 | [=F,C=F]4 [F,A,F]2 [F,A,F]6 | %16
 [G,CE]2 [G,C]2 [G,E]2 [G,=F]4[K:bass] [C,G,]2 |[M:5/4] [C,G,]2- [C,G,]2- [C,G,]6 |[M:1/4] E2 | %19
[M:6/4][K:treble] .=F12 | [C,C]4 C,2 C,4 C,2 | =F,2 F,2 E,2 [D,A,]4 [D,C]2 | %22
[M:5/4][K:treble] [G,B,G]2- [G,B,G]2- [G,B,G]6 |[M:1/4][K:bass] [G,B,]2 | %24
[M:6/4] [C,C]2 [C,C]2 [C,C]2 [C,C]2 [C,C]2 [C,C]2 | %25
 [=F,C]4 [F,C]2 [F,C]2 [F,C]2[K:treble] [F,C=F]2 | %26
 [G,CE]2 [G,E]2 [G,CG]2 [G,B,=F]4[K:bass] [C,C]2 | [C,G,]12 |] %28
V:3
 x12 | x12 | x12 |[M:5/4] x10 |[M:1/4] x2 |[M:6/4] x12 | x12 | x12 | x12 | x12 | x12 | x12 | %12
[M:5/4] x10 |[M:1/4] x2 |[M:6/4] x12 | x12 | x12 |[M:5/4] x10 |[M:1/4] x2 | %19
[M:6/4] z4 B,2 B,2 B2 G2 | z4 G,2 G,4 [CEG]2 | x12 |[M:5/4] x10 |[M:1/4] x2 |[M:6/4] x12 | x12 | %26
 x12 | x12 |] %28
V:4
 x12 | x12 | x12 |[M:5/4][K:bass] x10 |[M:1/4] x2 |[M:6/4] x10[K:treble] x2 | x12 | x12 | x12 | %9
 x12 | x12 | x12 |[M:5/4] x10 |[M:1/4] x2 |[M:6/4] x12 | x12 | x10[K:bass] x2 |[M:5/4] x10 | %18
[M:1/4] x2 |[M:6/4][K:treble] z4 G,2 G,2 [G,D=F]2 [G,B,F]2 | x12 | x12 |[M:5/4][K:treble] x10 | %23
[M:1/4][K:bass] x2 |[M:6/4] x12 | x10[K:treble] x2 | x10[K:bass] x2 | x12 |] %28

